!!!OTL: Jesu dulcis memoria
**kern
*staff1
=--
*clefC1
*k[]
*met(c)
*M4/4
2cc
2cc
2b
2b
=-
2a
1g
2f
=-
1g
2cc
2cc
=-
2b
2dd
2cc
2cc
=-
1b
1cc
!!linebreak:original
=-
2cc
2b
2b
1a
2g
1a
=-
1g
2f
1g
2g
2g
2g
=-
2a
2b
2g
1cc
2b
1cc
=-
2a
2a
2.a
4a
0a
=-=
*-
!!title: @{OTL}, @{GTL}, ed. @{ENC}
!!!pag:
!!!GTL: Hymnbook C
!!!EFL: 
!!!YEM: Creative Commons CC/BY/NC/SA 4.0
!!!ENC: Marcin Konik
!!!END: 2015-0m-dd
!!!EED: Marcin Konik
!!!EEV: 
!!!ONB: Encoded in vim by Marcin Konik
!!!CharacterEncoding: utf-8
!!!RDF**kern: l=long note in original notation
!!!RDF**kern: i=editorial accidental
!!muse2ps: z14jc180F
!!!COM: Anonim
!!!CDT: [?]
!!!TXO: Polish
!!!ODT: 
!!!GTL: Hymnbook C
!!!ARL: Opactwo św. Wojciecha, Staniątki 
!!!voices:	1
